flaticon/business/delivery-cart.svg

<svg xmlns="http://www.w3.org/2000/svg" width="32" height="32" viewBox="0 0 24 24">
    <path d="M 23.601562 18.398438 L 23.199219 18.398438 L 23.199219 10 L 19.1875 10 C 20.402344 9.171875 21.199219 7.777344 21.199219 6.199219 C 21.199219 3.664062 19.136719 1.601562 16.601562 1.601562 C 15.023438 1.601562 13.628906 2.398438 12.800781 3.613281 L 12.800781 1.601562 L 6 1.601562 L 6 18.398438 L 4.398438 18.398438 L 4.398438 2.800781 C 4.398438 2.578125 4.222656 2.398438 4 2.398438 L 3.144531 2.398438 C 2.964844 1.710938 2.34375 1.199219 1.601562 1.199219 C 0.71875 1.199219 0 1.917969 0 2.800781 C 0 3.683594 0.71875 4.398438 1.601562 4.398438 C 2.34375 4.398438 2.964844 3.886719 3.144531 3.199219 L 3.601562 3.199219 L 3.601562 18.800781 C 3.601562 19.019531 3.777344 19.199219 4 19.199219 L 6.8125 19.199219 C 6.324219 19.566406 6 20.144531 6 20.800781 C 6 21.902344 6.898438 22.800781 8 22.800781 C 9.101562 22.800781 10 21.902344 10 20.800781 C 10 20.144531 9.675781 19.566406 9.1875 19.199219 L 18.8125 19.199219 C 18.324219 19.566406 18 20.144531 18 20.800781 C 18 21.902344 18.898438 22.800781 20 22.800781 C 21.101562 22.800781 22 21.902344 22 20.800781 C 22 20.144531 21.675781 19.566406 21.1875 19.199219 L 23.601562 19.199219 C 23.820312 19.199219 24 19.019531 24 18.800781 C 24 18.578125 23.820312 18.398438 23.601562 18.398438 Z M 1.601562 3.601562 C 1.160156 3.601562 0.800781 3.242188 0.800781 2.800781 C 0.800781 2.359375 1.160156 2 1.601562 2 C 1.894531 2 2.148438 2.160156 2.289062 2.398438 L 2 2.398438 C 1.777344 2.398438 1.601562 2.578125 1.601562 2.800781 C 1.601562 3.019531 1.777344 3.199219 2 3.199219 L 2.289062 3.199219 C 2.148438 3.4375 1.894531 3.601562 1.601562 3.601562 Z M 8 22 C 7.339844 22 6.800781 21.460938 6.800781 20.800781 C 6.800781 20.136719 7.339844 19.601562 8 19.601562 C 8.660156 19.601562 9.199219 20.136719 9.199219 20.800781 C 9.199219 21.460938 8.660156 22 8 22 Z M 20 22 C 19.339844 22 18.800781 21.460938 18.800781 20.800781 C 18.800781 20.136719 19.339844 19.601562 20 19.601562 C 20.660156 19.601562 21.199219 20.136719 21.199219 20.800781 C 21.199219 21.460938 20.660156 22 20 22 Z M 16.800781 10.800781 L 18 10.800781 L 18 12.398438 L 16.800781 12.398438 Z M 16.601562 2.398438 C 18.695312 2.398438 20.398438 4.105469 20.398438 6.199219 C 20.398438 8.296875 18.695312 10 16.601562 10 C 14.503906 10 12.800781 8.296875 12.800781 6.199219 C 12.800781 4.105469 14.503906 2.398438 16.601562 2.398438 Z M 14.011719 10 L 12.800781 10 L 12.800781 8.789062 C 13.125 9.261719 13.535156 9.675781 14.011719 10 Z M 10 2.398438 L 10 4 L 8.800781 4 L 8.800781 2.398438 Z M 6.800781 18.398438 L 6.800781 2.398438 L 8 2.398438 L 8 4.800781 L 10.800781 4.800781 L 10.800781 2.398438 L 12 2.398438 L 12 18.398438 Z M 12.800781 18.398438 L 12.800781 10.800781 L 16 10.800781 L 16 13.199219 L 18.800781 13.199219 L 18.800781 10.800781 L 22.398438 10.800781 L 22.398438 18.398438 Z M 12.800781 18.398438"/>
</svg>

<svg xmlns="http://www.w3.org/2000/svg" width="32" height="32" viewBox="0 0 24 24">
    <path d="M23.602 18.398h-.403V10h-4.012A4.593 4.593 0 0 0 21.2 6.2a4.603 4.603 0 0 0-4.597-4.598A4.593 4.593 0 0 0 12.8 3.613V1.602H6v16.796H4.398V2.801A.398.398 0 0 0 4 2.398h-.855A1.6 1.6 0 0 0 1.602 1.2a1.6 1.6 0 0 0 0 3.2 1.6 1.6 0 0 0 1.543-1.2h.457v15.602c0 .219.175.398.398.398h2.813A2.004 2.004 0 0 0 6 20.801c0 1.101.898 2 2 2 1.102 0 2-.899 2-2 0-.656-.324-1.235-.813-1.602h9.626A2.004 2.004 0 0 0 18 20.801c0 1.101.898 2 2 2 1.102 0 2-.899 2-2 0-.656-.324-1.235-.813-1.602h2.415a.4.4 0 0 0 0-.8zm-22-14.796a.802.802 0 0 1 0-1.602c.293 0 .546.16.687.398H2a.398.398 0 0 0-.398.403c0 .219.175.398.398.398h.29a.801.801 0 0 1-.688.403zM8 22a1.2 1.2 0 1 1 0-2.398A1.2 1.2 0 0 1 8 22zm12 0a1.2 1.2 0 1 1 0-2.398A1.2 1.2 0 0 1 20 22zm-3.2-11.2H18v1.598h-1.2zm-.198-8.402a3.802 3.802 0 0 1 0 7.602A3.803 3.803 0 0 1 12.8 6.2c0-2.095 1.703-3.802 3.8-3.802zM14.012 10H12.8V8.79c.324.472.734.886 1.21 1.21zM10 2.398V4H8.8V2.398zm-3.2 16v-16H8v2.403h2.8V2.398H12v16zm6 0v-7.597H16v2.398h2.8v-2.398h3.598v7.597zm0 0"/>
</svg>
